www/img/tab-icons/ico-settings-selected.svg

<svg width="23" height="24" xmlns="http://www.w3.org/2000/svg">

 <g>
  <title>background</title>
  <rect fill="none" id="canvas_background" height="402" width="582" y="-1" x="-1"/>
 </g>
 <g>
  <title>Layer 1</title>
  <path fill="#f2d7a4" d="m19.9,13.3c0.1,-0.4 0.1,-0.9 0.1,-1.3c0,-0.4 0,-0.9 -0.1,-1.3l2.1,-1.9c0.2,-0.1 0.2,-0.3 0.1,-0.5c-0.4,-1.3 -1.1,-2.6 -2.1,-3.6c-0.1,-0.2 -0.3,-0.2 -0.5,-0.1l-2.7,0.9c-0.7,-0.5 -1.4,-1 -2.2,-1.3l-0.6,-2.8c0,-0.2 -0.2,-0.4 -0.4,-0.4c-1.4,-0.3 -2.9,-0.3 -4.3,0c-0.1,0 -0.3,0.2 -0.3,0.4l-0.6,2.8c-0.8,0.3 -1.6,0.7 -2.2,1.3l-2.7,-1c-0.2,-0.1 -0.4,0 -0.5,0.2c-1,1 -1.7,2.3 -2.2,3.6c0,0.2 0,0.4 0.2,0.5l2.2,1.9c-0.1,0.4 -0.2,0.9 -0.2,1.3c0,0.4 0,0.9 0.1,1.3l-2.1,1.9c-0.2,0.1 -0.2,0.3 -0.1,0.5c0.4,1.3 1.1,2.6 2.1,3.6c0.1,0.2 0.3,0.2 0.5,0.1l2.7,-0.9c0.7,0.5 1.4,1 2.2,1.3l0.6,2.8c0,0.2 0.2,0.4 0.4,0.4c0.7,0.1 1.4,0.2 2.1,0.2s1.4,-0.1 2.1,-0.2c0.2,0 0.3,-0.2 0.4,-0.4l0.5,-2.8c0.8,-0.3 1.6,-0.8 2.2,-1.3l2.7,0.9c0.2,0.1 0.4,0 0.5,-0.1c0.9,-1.1 1.7,-2.3 2.1,-3.7c0.1,-0.2 0,-0.4 -0.1,-0.5l-2,-1.8zm-8.4,2.9c-2.4,0 -4.2,-1.9 -4.2,-4.2c0,-2.3 1.9,-4.2 4.2,-4.2c2.3,0 4.2,1.9 4.2,4.2c0,2.3 -1.9,4.2 -4.2,4.2l0,0z" class="st0" id="fill"/>
  <path fill="#e1990f" d="m11.5,24c-0.7,0 -1.5,-0.1 -2.3,-0.2c-0.5,-0.1 -0.9,-0.5 -1,-1l-0.5,-2.4c-0.6,-0.3 -1.2,-0.6 -1.7,-1l-2.3,0.8c-0.5,0.2 -1,0.1 -1.4,-0.4c-1,-1.2 -1.8,-2.5 -2.3,-3.9c-0.2,-0.5 0,-1.1 0.4,-1.4l1.9,-1.5c0,-0.3 -0.1,-0.6 -0.1,-1c0,-0.4 0,-0.7 0.1,-1l-1.9,-1.6c-0.3,-0.2 -0.5,-0.8 -0.3,-1.4c0.4,-1.4 1.2,-2.7 2.3,-3.9c0.3,-0.4 0.9,-0.5 1.4,-0.3l2.2,0.8c0.5,-0.4 1.1,-0.7 1.7,-1l0.5,-2.4c0.1,-0.5 0.5,-0.9 1,-1c1.5,-0.3 3.1,-0.3 4.6,0c0.5,0.1 0.9,0.5 1,1l0.5,2.4c0.6,0.3 1.2,0.6 1.7,1l2.3,-0.8c0.4,-0.2 1,-0.1 1.4,0.4c1,1.2 1.8,2.5 2.3,3.9c0.2,0.5 0,1.1 -0.4,1.4l-1.9,1.5c0,0.3 0.1,0.6 0.1,1c0,0.4 0,0.7 -0.1,1l1.8,1.6c0.4,0.3 0.6,0.9 0.3,1.4c-0.4,1.4 -1.2,2.7 -2.3,3.9c-0.3,0.4 -0.9,0.5 -1.4,0.3l-2.1,-0.8c-0.5,0.4 -1.1,0.7 -1.7,1l-0.5,2.4c-0.1,0.5 -0.5,0.9 -1,1c-0.8,0.1 -1.6,0.2 -2.3,0.2zm1.7,-1.5c0,0 0,0 0,0l0,0zm-3.4,0l0,0c0,0 0,0 0,0zm-0.1,-0.2c1.3,0.2 2.3,0.2 3.6,0l0.6,-3l0.4,-0.2c0.7,-0.3 1.4,-0.7 2,-1.2l0.3,-0.3l2.9,1c0.8,-0.9 1.4,-2 1.8,-3.1l-2.3,-2l0.1,-0.4c0.1,-0.3 0.1,-0.7 0.1,-1.2c0,-0.4 0,-0.8 -0.1,-1.2l-0.1,-0.3l2.3,-2c-0.4,-1.1 -1,-2.1 -1.8,-3.1l-2.9,1l-0.3,-0.3c-0.6,-0.5 -1.3,-0.9 -2,-1.2l-0.4,-0.2l-0.6,-3c-1.2,-0.2 -2.4,-0.2 -3.6,0l-0.6,3l-0.4,0.3c-0.7,0.3 -1.4,0.7 -2,1.2l-0.3,0.2l-2.9,-1c-0.9,1 -1.5,2 -1.9,3.1l2.3,2l-0.1,0.4c-0.1,0.3 -0.1,0.7 -0.1,1.2c0,0.5 0,0.8 0.1,1.2l0.2,0.4l-2.3,2c0.4,1.1 1,2.1 1.8,3.1l2.9,-1l0.3,0.3c0.6,0.5 1.3,0.9 2,1.2l0.4,0.2l0.6,2.9zm3.8,-0.1c0,0 0,0 0,0c0,0 0,0 0,0zm-4,0c0,0 0,0 0,0c0,0 0,0 0,0zm9.9,-3.4c0,0 0,0 0,0c0,0 0,0 0,0zm-15.8,0c0,0 0,0 0,0c0,0 0,0 0,0zm-0.4,-0.1c0,0.1 0,0.1 0,0l0,0zm16.6,0l0,0c0,0 0,0 0,0zm1.7,-3c0,0.1 0.1,0.1 0,0l0,0zm-20,0l0,0c0,0.1 0,0 0,0zm19.9,-0.3c0,0 0,0 0,0c0,0 0,0 0,0zm-19.8,0c0,0 0,0 0,0c0,0 0,0 0,0zm19.8,-6.8c0,0 0,0 0,0c0,0 0,0 0,0zm-19.8,0c0,0 0,0 0,0c0,0 0,0 0,0zm19.9,-0.4c0,0.1 0,0.1 0,0l0,0zm-20.1,0l0,0c0.1,0 0,0 0,0zm1.8,-2.9c0,0 0,0 0,0l0,0zm16.6,-0.1l0,0c0,0.1 0,0.1 0,0zm-0.4,0c0,0 0,0 0,0c0,0 0,0 0,0zm-15.8,0c0,0 0,0 0,0c0,0 0,0 0,0zm9.9,-3.4c0,0 0,0 0,0c0,0 0,0 0,0zm-4,0c0,0 0,0 0,0c0,0 0,0 0,0zm3.7,-0.3c0,0 0,0 0,0l0,0zm-3.4,0l0,0c0,0 0,0 0,0zm1.7,15.5c-2.8,0 -5,-2.2 -5,-5s2.3,-5 5,-5c2.8,0 5,2.2 5,5s-2.2,5 -5,5zm0,-8.4c-1.9,0 -3.4,1.5 -3.4,3.4c0,1.9 1.5,3.4 3.4,3.4c1.9,0 3.4,-1.5 3.4,-3.4s-1.5,-3.4 -3.4,-3.4z" class="st1" id="outline"/>
 </g>
</svg>

<?xml version="1.0" encoding="utf-8"?>
<!-- Generator: Adobe Illustrator 20.1.0, SVG Export Plug-In . SVG Version: 6.00 Build 0)  -->
<svg version="1.1" id="Settings" xmlns="http://www.w3.org/2000/svg" xmlns:xlink="http://www.w3.org/1999/xlink" x="0px" y="0px"
	 viewBox="0 0 23 24" style="enable-background:new 0 0 23 24;" xml:space="preserve">
<style type="text/css">
	.st0{fill:#D5DFFF;}
	.st1{fill:#647ce8;}
</style>
<path id="fill" class="st0" d="M19.9,13.3c0.1-0.4,0.1-0.9,0.1-1.3c0-0.4,0-0.9-0.1-1.3L22,8.8c0.2-0.1,0.2-0.3,0.1-0.5
	C21.7,7,21,5.7,20,4.7c-0.1-0.2-0.3-0.2-0.5-0.1l-2.7,0.9c-0.7-0.5-1.4-1-2.2-1.3L14,1.4C14,1.2,13.8,1,13.6,1
	c-1.4-0.3-2.9-0.3-4.3,0C9.2,1,9,1.2,9,1.4L8.4,4.2C7.6,4.5,6.8,4.9,6.2,5.5L3.5,4.5C3.3,4.4,3.1,4.5,3,4.7C2,5.7,1.3,7,0.8,8.3
	C0.8,8.5,0.8,8.7,1,8.8l2.2,1.9C3.1,11.1,3,11.6,3,12c0,0.4,0,0.9,0.1,1.3L1,15.2c-0.2,0.1-0.2,0.3-0.1,0.5C1.3,17,2,18.3,3,19.3
	c0.1,0.2,0.3,0.2,0.5,0.1l2.7-0.9c0.7,0.5,1.4,1,2.2,1.3L9,22.6C9,22.8,9.2,23,9.4,23c0.7,0.1,1.4,0.2,2.1,0.2s1.4-0.1,2.1-0.2
	c0.2,0,0.3-0.2,0.4-0.4l0.5-2.8c0.8-0.3,1.6-0.8,2.2-1.3l2.7,0.9c0.2,0.1,0.4,0,0.5-0.1c0.9-1.1,1.7-2.3,2.1-3.7
	c0.1-0.2,0-0.4-0.1-0.5L19.9,13.3z M11.5,16.2c-2.4,0-4.2-1.9-4.2-4.2c0-2.3,1.9-4.2,4.2-4.2c2.3,0,4.2,1.9,4.2,4.2
	C15.7,14.3,13.8,16.2,11.5,16.2L11.5,16.2z"/>
<path id="outline" class="st1" d="M11.5,24c-0.7,0-1.5-0.1-2.3-0.2c-0.5-0.1-0.9-0.5-1-1l-0.5-2.4c-0.6-0.3-1.2-0.6-1.7-1l-2.3,0.8
	c-0.5,0.2-1,0.1-1.4-0.4c-1-1.2-1.8-2.5-2.3-3.9c-0.2-0.5,0-1.1,0.4-1.4L2.3,13c0-0.3-0.1-0.6-0.1-1c0-0.4,0-0.7,0.1-1L0.4,9.4
	C0.1,9.2-0.1,8.6,0.1,8c0.4-1.4,1.2-2.7,2.3-3.9c0.3-0.4,0.9-0.5,1.4-0.3L6,4.6c0.5-0.4,1.1-0.7,1.7-1l0.5-2.4c0.1-0.5,0.5-0.9,1-1
	c1.5-0.3,3.1-0.3,4.6,0c0.5,0.1,0.9,0.5,1,1l0.5,2.4c0.6,0.3,1.2,0.6,1.7,1l2.3-0.8c0.4-0.2,1-0.1,1.4,0.4c1,1.2,1.8,2.5,2.3,3.9
	c0.2,0.5,0,1.1-0.4,1.4L20.7,11c0,0.3,0.1,0.6,0.1,1c0,0.4,0,0.7-0.1,1l1.8,1.6c0.4,0.3,0.6,0.9,0.3,1.4c-0.4,1.4-1.2,2.7-2.3,3.9
	c-0.3,0.4-0.9,0.5-1.4,0.3L17,19.4c-0.5,0.4-1.1,0.7-1.7,1l-0.5,2.4c-0.1,0.5-0.5,0.9-1,1C13,23.9,12.2,24,11.5,24z M13.2,22.5
	C13.2,22.5,13.2,22.5,13.2,22.5L13.2,22.5z M9.8,22.5L9.8,22.5C9.8,22.5,9.8,22.5,9.8,22.5z M9.7,22.3c1.3,0.2,2.3,0.2,3.6,0l0.6-3
	l0.4-0.2c0.7-0.3,1.4-0.7,2-1.2l0.3-0.3l2.9,1c0.8-0.9,1.4-2,1.8-3.1l-2.3-2l0.1-0.4c0.1-0.3,0.1-0.7,0.1-1.2c0-0.4,0-0.8-0.1-1.2
	L19,10.4l2.3-2c-0.4-1.1-1-2.1-1.8-3.1l-2.9,1l-0.3-0.3c-0.6-0.5-1.3-0.9-2-1.2l-0.4-0.2l-0.6-3c-1.2-0.2-2.4-0.2-3.6,0l-0.6,3
	L8.7,4.9C8,5.2,7.3,5.6,6.7,6.1L6.4,6.3l-2.9-1C2.6,6.3,2,7.3,1.6,8.4l2.3,2l-0.1,0.4c-0.1,0.3-0.1,0.7-0.1,1.2c0,0.5,0,0.8,0.1,1.2
	L4,13.6l-2.3,2c0.4,1.1,1,2.1,1.8,3.1l2.9-1l0.3,0.3c0.6,0.5,1.3,0.9,2,1.2l0.4,0.2L9.7,22.3z M13.5,22.2
	C13.5,22.2,13.5,22.2,13.5,22.2C13.5,22.2,13.5,22.2,13.5,22.2z M9.5,22.2C9.5,22.2,9.5,22.2,9.5,22.2C9.5,22.2,9.5,22.2,9.5,22.2z
	 M19.4,18.8C19.4,18.8,19.4,18.8,19.4,18.8C19.4,18.8,19.4,18.8,19.4,18.8z M3.6,18.8C3.6,18.8,3.6,18.8,3.6,18.8
	C3.6,18.8,3.6,18.8,3.6,18.8z M3.2,18.7C3.2,18.8,3.2,18.8,3.2,18.7L3.2,18.7z M19.8,18.7L19.8,18.7C19.8,18.7,19.8,18.7,19.8,18.7z
	 M21.5,15.7C21.5,15.8,21.6,15.8,21.5,15.7L21.5,15.7z M1.5,15.7L1.5,15.7C1.5,15.8,1.5,15.7,1.5,15.7z M21.4,15.4
	C21.4,15.4,21.4,15.4,21.4,15.4C21.4,15.4,21.4,15.4,21.4,15.4z M1.6,15.4C1.6,15.4,1.6,15.4,1.6,15.4C1.6,15.4,1.6,15.4,1.6,15.4z
	 M21.4,8.6C21.4,8.6,21.4,8.6,21.4,8.6C21.4,8.6,21.4,8.6,21.4,8.6z M1.6,8.6C1.6,8.6,1.6,8.6,1.6,8.6C1.6,8.6,1.6,8.6,1.6,8.6z
	 M21.5,8.2C21.5,8.3,21.5,8.3,21.5,8.2L21.5,8.2z M1.4,8.2L1.4,8.2C1.5,8.2,1.4,8.2,1.4,8.2z M3.2,5.3C3.2,5.3,3.2,5.3,3.2,5.3
	L3.2,5.3z M19.8,5.2L19.8,5.2C19.8,5.3,19.8,5.3,19.8,5.2z M19.4,5.2C19.4,5.2,19.4,5.2,19.4,5.2C19.4,5.2,19.4,5.2,19.4,5.2z
	 M3.6,5.2C3.6,5.2,3.6,5.2,3.6,5.2C3.6,5.2,3.6,5.2,3.6,5.2z M13.5,1.8C13.5,1.8,13.5,1.8,13.5,1.8C13.5,1.8,13.5,1.8,13.5,1.8z
	 M9.5,1.8C9.5,1.8,9.5,1.8,9.5,1.8C9.5,1.8,9.5,1.8,9.5,1.8z M13.2,1.5C13.2,1.5,13.2,1.5,13.2,1.5L13.2,1.5z M9.8,1.5L9.8,1.5
	C9.8,1.5,9.8,1.5,9.8,1.5z M11.5,17c-2.8,0-5-2.2-5-5s2.3-5,5-5c2.8,0,5,2.2,5,5S14.3,17,11.5,17z M11.5,8.6c-1.9,0-3.4,1.5-3.4,3.4
	c0,1.9,1.5,3.4,3.4,3.4c1.9,0,3.4-1.5,3.4-3.4S13.4,8.6,11.5,8.6z"/>
</svg>
